X:2009 
T:Barbara Allen 
N:See also KV3, 26, 127 and 361.
C:Ellen Creer, Castletown
O:Isle of Man
S:Traditional
Z:Clague collection
B:Kiaull Vannin #9
M:6/4 
L:1/4
K:G 
G BA|G3 B dc|(A-G2) GcB|c3 ded|d3 GBc|(d2g) dcB|(B-c2) B/c/ dg|d3 c/B/ AG-|G3||
